icons/deepsource_dark.svg

<!--
  - The MIT License (MIT)
  -
  - Copyright (c) 2015-2024 Elior "Mallowigi" Boukhobza
  -
  - Permission is hereby granted, free of charge, to any person obtaining a copy
  - of this software and associated documentation files (the "Software"), to deal
  - in the Software without restriction, including without limitation the rights
  - to use, copy, modify, merge, publish, distribute, sublicense, and/or sell
  - copies of the Software, and to permit persons to whom the Software is
  - furnished to do so, subject to the following conditions:
  -
  - The above copyright notice and this permission notice shall be included in all
  - copies or substantial portions of the Software.
  -
  - THE SOFTWARE IS PROVIDED "AS IS", WITHOUT WARRANTY OF ANY KIND, EXPRESS OR
  - IMPLIED, INCLUDING BUT NOT LIMITED TO THE WARRANTIES OF MERCHANTABILITY,
  - FITNESS FOR A PARTICULAR PURPOSE AND NONINFRINGEMENT. IN NO EVENT SHALL THE
  - AUTHORS OR COPYRIGHT HOLDERS BE LIABLE FOR ANY CLAIM, DAMAGES OR OTHER
  - LIABILITY, WHETHER IN AN ACTION OF CONTRACT, TORT OR OTHERWISE, ARISING FROM,
  - OUT OF OR IN CONNECTION WITH THE SOFTWARE OR THE USE OR OTHER DEALINGS IN THE
  - SOFTWARE.
  -->

<svg version="1.1" xmlns="http://www.w3.org/2000/svg" x="0px"
     y="0px" height="16px"
     width="16px" viewBox="0 0 396 460" enable-background="new 0 0 396 460" xml:space="preserve">
<path fill="#FFFFFF" data-iconColor="DeepSource Dark" d="M397.000000,196.000000
	C397.000000,221.354233 397.000000,246.708450 396.645966,272.651917
	C394.539001,280.575836 392.641724,287.879639 391.063538,295.251740
	C387.899597,310.031067 382.440247,323.980225 376.014404,337.580505
	C373.610199,342.669006 371.215485,347.815582 368.224762,352.562988
	C360.582092,364.694702 353.307068,377.160950 344.539337,388.447998
	C337.712097,397.236969 329.134216,404.755707 320.825439,412.276733
	C313.767365,418.665741 306.287415,424.693481 298.456665,430.103058
	C280.398224,442.577972 261.009583,452.442688 239.648514,458.111542
	C238.585068,458.393799 237.874741,460.006683 237.000000,461.000000
	C158.371536,461.000000 79.743088,461.000000 1.057315,461.000000
	C1.057315,307.779358 1.057315,154.558716 1.057315,1.000000
	C69.020523,1.000000 137.041595,1.000000 205.665848,1.362115
	C208.964310,2.195745 211.702942,2.496613 214.347382,3.168353
	C225.714355,6.055793 237.445129,8.045056 248.303314,12.265512
	C261.683838,17.466364 274.707733,23.897270 287.176300,31.035807
	C297.741577,37.084675 307.839478,44.254490 317.146759,52.110081
	C326.346375,59.874832 334.859253,68.644745 342.636230,77.849945
	C350.477997,87.131836 357.883789,97.006699 363.943756,107.508591
	C370.535675,118.932442 375.460388,131.330917 380.926483,143.388580
	C387.391968,157.650864 391.365417,172.665039 394.096252,188.054886
	C394.581390,190.788925 396.008087,193.355881 397.000000,196.000000
M274.906067,359.790619
	C292.033844,353.279205 297.997162,334.009094 287.148438,319.809448
	C281.812500,312.825348 274.416931,310.005890 265.744873,309.993866
	C229.112152,309.942993 192.479553,309.792206 155.846848,309.763672
	C127.706154,309.741760 99.565338,309.837494 71.424622,309.904236
	C63.738323,309.922455 63.729412,309.961090 63.726257,317.385162
	C63.720879,330.040253 63.716442,342.695404 63.743320,355.350433
	C63.747074,357.117645 63.930717,358.884460 64.047173,360.934631
	C66.312225,361.037689 68.109230,361.190552 69.906258,361.191010
	C133.348236,361.207581 196.790237,361.233459 260.232117,361.165466
	C264.868683,361.160492 269.504486,360.461212 274.906067,359.790619
M238.656021,155.466309
	C239.697235,154.942902 240.764603,154.465378 241.775620,153.888992
	C252.154068,147.972229 257.515228,135.839310 254.570663,124.973106
	C251.502655,113.651382 241.598480,106.114021 229.509232,106.057396
	C184.685272,105.847458 139.861160,105.671227 95.037033,105.500610
	C84.727837,105.461372 74.418350,105.494820 63.698250,105.494820
	C63.698250,123.125999 63.698250,139.856567 63.698250,156.760345
	C65.446945,156.858261 66.759933,156.995895 68.072929,156.996063
	C122.067291,157.002625 176.061661,157.013611 230.055954,156.941864
	C232.678802,156.938385 235.300674,156.195389 238.656021,155.466309
M94.500076,207.817001
	C84.379768,207.817001 74.259468,207.817001 63.859764,207.817001
	C63.859764,225.152634 63.859764,241.856628 63.859764,259.171478
	C66.617767,259.171478 68.747559,259.171570 70.877357,259.171478
	C98.693550,259.170135 126.509789,259.192810 154.325928,259.152588
	C162.485748,259.140778 170.645203,258.940125 178.805038,258.844330
	C188.050690,258.735809 195.096771,254.530792 200.075897,246.966370
	C205.278580,239.062332 205.511047,230.354156 201.362640,222.242661
	C197.285385,214.270264 190.943375,208.698532 180.929871,208.655289
	C152.452591,208.532318 123.976585,208.117142 94.500076,207.817001
z"/>
  <path fill="#F0251B"
        d="M274.523376,359.937683
	C269.504486,360.461212 264.868683,361.160492 260.232117,361.165466
	C196.790237,361.233459 133.348236,361.207581 69.906258,361.191010
	C68.109230,361.190552 66.312225,361.037689 64.047173,360.934631
	C63.930717,358.884460 63.747074,357.117645 63.743320,355.350433
	C63.716442,342.695404 63.720879,330.040253 63.726257,317.385162
	C63.729412,309.961090 63.738323,309.922455 71.424622,309.904236
	C99.565338,309.837494 127.706154,309.741760 155.846848,309.763672
	C192.479553,309.792206 229.112152,309.942993 265.744873,309.993866
	C274.416931,310.005890 281.812500,312.825348 287.148438,319.809448
	C297.997162,334.009094 292.033844,353.279205 274.523376,359.937683
z"/>
  <path fill="#3CDD9C"
        d="M238.289520,155.631531
	C235.300674,156.195389 232.678802,156.938385 230.055954,156.941864
	C176.061661,157.013611 122.067291,157.002625 68.072929,156.996063
	C66.759933,156.995895 65.446945,156.858261 63.698250,156.760345
	C63.698250,139.856567 63.698250,123.125999 63.698250,105.494820
	C74.418350,105.494820 84.727837,105.461372 95.037033,105.500610
	C139.861160,105.671227 184.685272,105.847458 229.509232,106.057396
	C241.598480,106.114021 251.502655,113.651382 254.570663,124.973106
	C257.515228,135.839310 252.154068,147.972229 241.775620,153.888992
	C240.764603,154.465378 239.697235,154.942902 238.289520,155.631531
z"/>
  <path fill="#FBB504"
        d="M95.000076,207.816986
	C123.976585,208.117142 152.452591,208.532318 180.929871,208.655289
	C190.943375,208.698532 197.285385,214.270264 201.362640,222.242661
	C205.511047,230.354156 205.278580,239.062332 200.075897,246.966370
	C195.096771,254.530792 188.050690,258.735809 178.805038,258.844330
	C170.645203,258.940125 162.485748,259.140778 154.325928,259.152588
	C126.509789,259.192810 98.693550,259.170135 70.877357,259.171478
	C68.747559,259.171570 66.617767,259.171478 63.859764,259.171478
	C63.859764,241.856628 63.859764,225.152634 63.859764,207.817001
	C74.259468,207.817001 84.379768,207.817001 95.000076,207.816986
z"/>
</svg>

<svg xmlns="http://www.w3.org/2000/svg" xml:space="preserve" viewBox="0 0 396 460"><path fill="#fff" d="M397 196c0 25.354 0 50.708-.354 76.652-2.107 7.924-4.004 15.228-5.582 22.6-3.164 14.78-8.624 28.728-15.05 42.329-2.404 5.088-4.799 10.235-7.79 14.982-7.642 12.132-14.917 24.598-23.685 35.885-6.827 8.789-15.405 16.308-23.714 23.829-7.058 6.389-14.538 12.416-22.368 17.826-18.059 12.475-37.447 22.34-58.808 28.009-1.064.282-1.774 1.895-2.649 2.888H1.057V1c67.964 0 135.985 0 204.609.362 3.298.834 6.037 1.135 8.681 1.806 11.367 2.888 23.098 4.877 33.956 9.098 13.38 5.2 26.405 11.631 38.873 18.77 10.566 6.049 20.663 13.218 29.97 21.074 9.2 7.765 17.713 16.535 25.49 25.74 7.842 9.282 15.248 19.157 21.308 29.659 6.592 11.423 11.516 23.822 16.982 35.88 6.466 14.262 10.44 29.276 13.17 44.666.485 2.734 1.912 5.3 2.904 7.945M274.906 359.79c17.128-6.51 23.091-25.78 12.242-39.98-5.336-6.985-12.731-9.804-21.403-9.816-36.633-.051-73.265-.202-109.898-.23-28.14-.022-56.282.073-84.422.14-7.687.018-7.696.057-7.699 7.481-.005 12.655-.01 25.31.017 37.965.004 1.768.188 3.534.304 5.585 2.265.103 4.062.256 5.86.256 63.441.017 126.883.042 190.325-.026 4.637-.005 9.272-.704 14.674-1.374m-36.25-204.325c1.041-.523 2.109-1 3.12-1.577 10.378-5.917 15.74-18.05 12.795-28.916-3.068-11.322-12.973-18.859-25.062-18.916-44.824-.21-89.648-.386-134.472-.556-10.31-.04-20.619-.006-31.339-.006v51.265c1.749.098 3.062.236 4.375.236 53.994.007 107.989.018 161.983-.054 2.623-.004 5.245-.747 8.6-1.476M94.5 207.817H63.86v51.354h7.017c27.817 0 55.633.022 83.449-.018 8.16-.012 16.32-.213 24.479-.309 9.246-.108 16.292-4.313 21.27-11.878 5.204-7.904 5.436-16.612 1.288-24.723-4.078-7.973-10.42-13.544-20.433-13.588-28.477-.123-56.953-.538-86.43-.838" data-iconColor="DeepSource Dark"/><path fill="#f0251b" d="M274.523 359.938c-5.019.523-9.654 1.222-14.29 1.227-63.443.068-126.885.043-190.327.026-1.797 0-3.594-.153-5.859-.256-.116-2.05-.3-3.817-.304-5.585-.027-12.655-.022-25.31-.017-37.965.003-7.424.012-7.463 7.699-7.48 28.14-.068 56.281-.163 84.422-.141 36.633.028 73.265.179 109.898.23 8.672.012 16.067 2.831 21.403 9.815 10.85 14.2 4.886 33.47-12.625 40.129"/><path fill="#3cdd9c" d="M238.29 155.632c-2.99.563-5.611 1.306-8.234 1.31-53.994.072-107.989.06-161.983.054-1.313 0-2.626-.138-4.375-.236v-51.265c10.72 0 21.03-.034 31.339.006 44.824.17 89.648.346 134.472.556 12.09.057 21.994 7.594 25.062 18.916 2.944 10.866-2.417 23-12.795 28.916-1.011.576-2.079 1.054-3.486 1.743"/><path fill="#fbb504" d="M95 207.817c28.977.3 57.453.715 85.93.838 10.013.044 16.355 5.615 20.433 13.588 4.148 8.111 3.916 16.82-1.287 24.723-4.98 7.565-12.025 11.77-21.271 11.878-8.16.096-16.32.297-24.48.309-27.815.04-55.631.017-83.448.018H63.86v-51.354z"/></svg>
